X:1
T:Beautiful Star
T:Frederick Augustus Fillmore
T:Beautiful Star
T:Public Domain
T:Public Domain
T:Public Domain
C:Frederick Augustus Fillmore
Z:Public Domain
%%score ( 1 2 ) ( 3 4 )
L:1/8
M:6/8
K:D
V:1 treble 
V:2 treble 
V:3 bass 
V:4 bass 
V:1
 D | [DF][DF][DF] [DG]>[DF][DF] | [CE]>[A,D][A,E] [A,D]2 [FA] | [GB]>B[Ac] [Bd][Ac][GB] | %4
w: 1.~The|men of old saw a beau-|ti- ful star, Led on|by its glo- ry they tra-|
w: 2.~The|of the east was the her-|ald of day, The light|ev- er- last- ing that fades|
w: 3.~The|of His Word guards His peo-|ple to- day, To sweet|joy in Je- sus ’tis lead-|
w: 4.~To|who in dark- ness are stray-|ing a- far, We’ll show|the pure rays of the beau-|
 [FA][DF]D [CE]2 [CE] | [DF]>[D^E][DF] D[D=E][DF] | [DG][DG][DA] [DB]2 [DB] | %7
w: veled a- far; O’er moun-|and val- ley ’til wan- der-|past, Their gifts at the|
w: not a- way; Its beams|ing high- er, O hast- en|see, The Light of the|
w: ing the way. Then still|us fol- low and lov- ing-|bring Our hearts and our|
w: ti- ful star. We’ll tell|of Je- sus, that at His|feet, The saved of all|
 [Gd]>[Gc][GB] [FA][DF]D | [CE]>[A,D][A,E] [A,D]3 ||"^Refrain" GGG [Gd][Gc][GB] | FFF [FA]3 | %11
w: feet of the Sav- ior they||||
w: world shines for you and for|Beau- ti- ful beau-|ti- ful star of the east|ti- ful beau- ti-|
w: off- erings to Je- sus our||||
w: na- tions shall joy- ful- ly||||
 DDD [DF][DE]D | CCD [CA]3 | [DF]>[DF][DF] [DF][DE]D | D[DG][DA] [DB]3 | [Gd]>[Gc][GB] [FA][DF]D | %16
w: |||||
w: star of the east Scat- ter|ows of sin far|way, Lead us to Je- sus,|Star of the day.||
w: |||||
w: |||||
 [CE]>[A,D][A,E] [A,D]3 |] %17
w: |
w: |
w: |
w: |
V:2
 D | x6 | x6 | x6 | x2 D x3 | x3 D x2 | x6 | x5 D | x6 || d3 x3 | A3 x3 | F3 x D x | A3 x3 | x5 D | %14
w: wise||||tain|ings||cast.|||||||
w: star||||ris-|and||me.||Beau-|ful|the shad-|a-|the|
w: star||||let|ly||king.|||||||
w: those||||them|dear||meet.|||||||
 D x5 | x5 D | x6 |] %17
w: |||
w: |||
w: |||
w: |||
V:3
 [D,F,] | [D,A,][D,A,][D,A,] [D,B,]>[D,A,][D,A,] | [A,,G,]>[A,,F,][A,,G,] [D,F,]2 [D,D] | %3
w: ~|~ ~ ~ ~ ~ ~|~ ~ ~ ~ ~|
 [G,D]>[G,D][G,D] [G,D][G,D][G,D] | [D,D][D,A,][B,,^G,] [A,,A,]2 [A,,A,] | %5
w: ~ ~ ~ ~ ~ ~|~ ~ ~ ~ ~|
 [D,A,]>[D,^G,][D,A,] [D,F,][D,=G,][=C,A,] | [B,,G,][B,,G,][A,,F,] [G,,G,]2 G, | %7
w: ~ ~ ~ ~ ~ ~|~ ~ ~ ~ ~|
 [G,B,]>[G,C][G,D] [D,D][D,A,][B,,^G,] | [A,,A,]>[A,,F,][A,,G,] [D,F,]3 || %9
w: ~ ~ ~ ~ ~ ~|~ ~ ~ Beau|
 [G,B,][G,B,][G,B,] [G,B,][G,C][G,D] | [D,D][D,D][D,D] [D,D]3 | %11
w: \- \- \- \- ti- ful|star ~ ~ Beau|
 [D,A,][D,A,][D,A,] [D,A,][D,G,][D,F,] | [A,,A,][A,,E,][A,,F,] [A,,E,]3 | %13
w: \- \- \- \- ti- ful|star * * *|
 [D,A,]>[D,A,][D,A,] [D,A,][D,G,][D,F,] | [G,B,][G,B,][G,A,] G,3 | %15
w: ||
 [G,B,]>[G,C][G,D] [D,D][D,A,][B,,^G,] | [A,,A,]>[A,,F,][A,,G,] [D,F,]3 |] %17
w: ||
V:4
 x | x6 | x6 | x6 | x6 | x6 | x5 G, | x6 | x6 || x6 | x6 | x6 | x6 | x6 | x3 G,3 | x6 | x6 |] %17
w: ||||||~|||||||||||

